assets/icons/qvision/local_movies.svg

<svg xmlns="http://www.w3.org/2000/svg" height="24" viewBox="0 0 24 24" width="24"><path d="M0 0h24v24H0z" fill="none"/><path d="M18 3v2h-2V3H8v2H6V3H4v18h2v-2h2v2h8v-2h2v2h2V3h-2zM8 17H6v-2h2v2zm0-4H6v-2h2v2zm0-4H6V7h2v2zm10 8h-2v-2h2v2zm0-4h-2v-2h2v2zm0-4h-2V7h2v2z"/></svg>

<svg width="24" height="24" viewBox="0 0 24 24" fill="none" xmlns="http://www.w3.org/2000/svg">
<g clip-path="url(#clip0_147_5424)">
<path d="M18 3V5H16V3H8V5H6V3H4V21H6V19H8V21H16V19H18V21H20V3H18ZM8 17H6V15H8V17ZM8 13H6V11H8V13ZM8 9H6V7H8V9ZM18 17H16V15H18V17ZM18 13H16V11H18V13ZM18 9H16V7H18V9Z" fill="#323232"/>
</g>
<defs>
<clipPath id="clip0_147_5424">
<rect width="24" height="24" fill="white"/>
</clipPath>
</defs>
</svg>
